src/assets/facebook.svg

<svg xmlns="http://www.w3.org/2000/svg" style="isolation:isolate" viewBox="0 0 100 100" width="100pt" height="100pt"><defs><clipPath id="a"><path d="M0 0h100v100H0z"/></clipPath></defs><g clip-path="url(#a)"><path d="M72.577 30.536c-.616 6.702-1.186 12.972-1.771 19.365H56.37v48.545H37.067v-48.39h-9.644V30.582h9.459c0-2.942-.154-5.654.046-8.35.216-2.757.431-5.608 1.248-8.226C40.425 6.842 45.555 2.513 52.935 1.85c6.316-.585 12.725-.123 19.242-.123v16.33H62.41c-3.867 0-5.254 1.403-5.285 5.316-.015 2.311 0 4.622 0 7.148 5.223.015 10.23.015 15.452.015z" fill="#FFF" opacity=".41"/></g></svg>

<?xml version="1.0" encoding="UTF-8" standalone="no"?><!-- Generator: Gravit.io --><svg xmlns="http://www.w3.org/2000/svg" xmlns:xlink="http://www.w3.org/1999/xlink" style="isolation:isolate" viewBox="0 0 100 100" width="100pt" height="100pt"><defs><clipPath id="_clipPath_9OX1wzCm3A0vDBzWLsRlUjN9bl586VjR"><rect width="100" height="100"/></clipPath></defs><g clip-path="url(#_clipPath_9OX1wzCm3A0vDBzWLsRlUjN9bl586VjR)"><g opacity="0.41"><path d=" M 72.577 30.536 C 71.961 37.238 71.391 43.508 70.806 49.901 C 65.999 49.901 61.362 49.901 56.37 49.901 C 56.37 58.098 56.37 66.186 56.37 74.258 C 56.37 82.285 56.37 90.311 56.37 98.446 C 49.869 98.446 43.568 98.446 37.067 98.446 C 37.067 82.377 37.067 66.309 37.067 50.056 C 33.77 50.056 30.673 50.056 27.423 50.056 C 27.423 43.523 27.423 37.176 27.423 30.582 C 30.457 30.582 33.554 30.582 36.882 30.582 C 36.882 27.64 36.728 24.928 36.928 22.232 C 37.144 19.475 37.359 16.624 38.176 14.006 C 40.425 6.842 45.555 2.513 52.935 1.85 C 59.251 1.265 65.66 1.727 72.177 1.727 C 72.177 7.042 72.177 12.434 72.177 18.057 C 68.88 18.057 65.645 18.057 62.41 18.057 C 58.543 18.057 57.156 19.46 57.125 23.373 C 57.11 25.684 57.125 27.995 57.125 30.521 C 62.348 30.536 67.355 30.536 72.577 30.536 Z " fill="rgb(255,255,255)"/></g></g></svg>
